report_00007_2020-12-11T15:55:29.892Z/bootup-time/comparison/sorted/6_vs_7.svg

<svg width="640" height="500" xmlns="http://www.w3.org/2000/svg" xmlns:xlink="http://www.w3.org/1999/xlink"><path fill="#fff" d="M0 0h640v500H0z"/><defs><path id="d" stroke-width=".222" stroke="currentColor" d="M-1-1h2v2h-2z"/><path id="b" stroke-width=".222" stroke="currentColor" d="M0-1.33l-1.33 2h2.66z"/><path id="f" stroke-width=".222" stroke="currentColor" d="M0 1.33L1.265.411.782-1.067l-1.564-.009-.483 1.487z"/><use xlink:href="#b" id="c" stroke="currentColor" transform="rotate(180)"/><use xlink:href="#d" id="e" stroke="currentColor" transform="rotate(45)"/><circle id="a" stroke-width=".222" stroke="currentColor" cx="0" cy="0" r="1"/></defs><g fill="none" color="#000" stroke="currentColor"><path stroke="#000" d="M45.6 359.1h9m560.4 0h-9"/><text transform="translate(37.3 363)" stroke="none" fill="#000" font-family="Arial" font-size="12" text-anchor="end"><tspan>38</tspan></text></g><g fill="none" color="#000" stroke="currentColor"><path stroke="#000" d="M45.6 311.8h9m560.4 0h-9"/><text transform="translate(37.3 315.7)" stroke="none" fill="#000" font-family="Arial" font-size="12" text-anchor="end"><tspan>40</tspan></text></g><g fill="none" color="#000" stroke="currentColor"><path stroke="#000" d="M45.6 264.4h9m560.4 0h-9"/><text transform="translate(37.3 268.3)" stroke="none" fill="#000" font-family="Arial" font-size="12" text-anchor="end"><tspan>42</tspan></text></g><g fill="none" color="#000" stroke="currentColor"><path stroke="#000" d="M45.6 217h9m560.4 0h-9"/><text transform="translate(37.3 220.9)" stroke="none" fill="#000" font-family="Arial" font-size="12" text-anchor="end"><tspan>44</tspan></text></g><g fill="none" color="#000" stroke="currentColor"><path stroke="#000" d="M45.6 169.7h9m560.4 0h-9"/><text transform="translate(37.3 173.6)" stroke="none" fill="#000" font-family="Arial" font-size="12" text-anchor="end"><tspan>46</tspan></text></g><g fill="none" color="#000" stroke="currentColor"><path stroke="#000" d="M45.6 122.3h9m560.4 0h-9"/><text transform="translate(37.3 126.2)" stroke="none" fill="#000" font-family="Arial" font-size="12" text-anchor="end"><tspan>48</tspan></text></g><g fill="none" color="#000" stroke="currentColor"><path stroke="#000" d="M45.6 74.9h9m560.4 0h-9"/><text transform="translate(37.3 78.8)" stroke="none" fill="#000" font-family="Arial" font-size="12" text-anchor="end"><tspan>50</tspan></text></g><g fill="none" color="#000" stroke="currentColor"><path stroke="#000" d="M45.6 27.6h9m560.4 0h-9"/><text transform="translate(37.3 31.5)" stroke="none" fill="#000" font-family="Arial" font-size="12" text-anchor="end"><tspan>52</tspan></text></g><g fill="none" color="#000" stroke="currentColor"><path stroke="#000" d="M45.6 392v-9m0-364.9v9"/><text transform="translate(45.6 413.9)" stroke="none" fill="#000" font-family="Arial" font-size="12" text-anchor="middle"><tspan>0</tspan></text></g><g fill="none" color="#000" stroke="currentColor"><path stroke="#000" d="M103.1 392v-9m0-364.9v9"/><text transform="translate(103.1 413.9)" stroke="none" fill="#000" font-family="Arial" font-size="12" text-anchor="middle"><tspan>10</tspan></text></g><g fill="none" color="#000" stroke="currentColor"><path stroke="#000" d="M160.6 392v-9m0-364.9v9"/><text transform="translate(160.6 413.9)" stroke="none" fill="#000" font-family="Arial" font-size="12" text-anchor="middle"><tspan>20</tspan></text></g><g fill="none" color="#000" stroke="currentColor"><path stroke="#000" d="M218.1 392v-9m0-364.9v9"/><text transform="translate(218.1 413.9)" stroke="none" fill="#000" font-family="Arial" font-size="12" text-anchor="middle"><tspan>30</tspan></text></g><g fill="none" color="#000" stroke="currentColor"><path stroke="#000" d="M275.7 392v-9m0-364.9v9"/><text transform="translate(275.7 413.9)" stroke="none" fill="#000" font-family="Arial" font-size="12" text-anchor="middle"><tspan>40</tspan></text></g><g fill="none" color="#000" stroke="currentColor"><path stroke="#000" d="M333.2 392v-9m0-364.9v9"/><text transform="translate(333.2 413.9)" stroke="none" fill="#000" font-family="Arial" font-size="12" text-anchor="middle"><tspan>50</tspan></text></g><g fill="none" color="#000" stroke="currentColor"><path stroke="#000" d="M390.7 392v-9m0-364.9v9"/><text transform="translate(390.7 413.9)" stroke="none" fill="#000" font-family="Arial" font-size="12" text-anchor="middle"><tspan>60</tspan></text></g><g fill="none" color="#000" stroke="currentColor"><path stroke="#000" d="M448.2 392v-9m0-364.9v9"/><text transform="translate(448.2 413.9)" stroke="none" fill="#000" font-family="Arial" font-size="12" text-anchor="middle"><tspan>70</tspan></text></g><g fill="none" color="#000" stroke="currentColor"><path stroke="#000" d="M505.7 392v-9m0-364.9v9"/><text transform="translate(505.7 413.9)" stroke="none" fill="#000" font-family="Arial" font-size="12" text-anchor="middle"><tspan>80</tspan></text></g><g fill="none" color="#000" stroke="currentColor"><path stroke="#000" d="M563.2 392v-9m0-364.9v9"/><text transform="translate(563.2 413.9)" stroke="none" fill="#000" font-family="Arial" font-size="12" text-anchor="middle"><tspan>90</tspan></text></g><path stroke="#000" d="M45.6 18.1V392H615V18.1H45.6z" fill="none" color="#000"/><text transform="translate(429.5 431.9)" stroke="none" fill="#000" font-family="Arial" font-size="12" text-anchor="end" color="#000"><tspan>pages+cached+noexternal+nofonts</tspan></text><path stroke="#9400D3" d="M437.8 428H480M45.6 313.6l5.8-50.1 5.7-12 5.8-4.9 5.7-6.7 5.8-6.3 5.7-1.5 5.8-5.1 5.7-2.1 5.8-1.8 5.7-.5 5.8-1 5.7-1.8 5.8-.1 5.7-.2 5.8-.4 5.7-2 5.8-.2 5.7-.2 5.8-.5 5.7-.1 5.8-1.5 5.7-2.6h5.8l5.7-.1 5.8-.3 5.7-1.5 5.8-.2 5.7-.2 5.8-1.7 5.7-.4 5.8-.5 5.7-.3 5.8-.3 5.8-.6 5.7-.6 5.8-1.3h5.7l5.8-.6 5.7-.5 5.8-.1 5.7-.8 5.8-.6 5.7-.3 5.8-.7 5.7-.7 5.8-.3 5.7-.4 5.8-.2 5.7-1.8 5.8-.4 5.7-2.2 5.8-.1 5.7-1.3 5.8-.5 5.7-.1 5.8-2.4 5.7-.8 5.8-.1 5.7-.4 5.8-1.1 5.7-.2 5.8-.7 5.7-.5 5.8-.9 5.7-1.1 5.8-.9 5.8-.1 5.7-1.3 5.8-1 5.7-.7 5.8-.4 5.7-.7 5.8-2.1 5.7-1.1 5.8-.3 5.7-1.1 5.8-.7 5.7-.2 5.8-1.2 5.7-2.1 5.8-.9 5.7-.7 5.8-.8 5.7-1.5 5.8-2.4h5.7l5.8-.4 5.7-.1 5.8-.3 5.7-.4 5.8-3.6 5.7-2.1 5.8-2.5 5.7-7 5.8-1 5.7-9.7 5.8-4.3 5.7-10.8 5.8-35.7" fill="none" color="#000"/><text transform="translate(429.5 449.9)" stroke="none" fill="#000" font-family="Arial" font-size="12" text-anchor="end" color="#000"><tspan>pages+cached+noexternal+nosvg</tspan></text><path stroke="#009E73" d="M437.8 446H480M45.6 384.8l5.8-13 5.7-2.9 5.8-.5 5.7-.6 5.8-.6 5.7-2 5.8-.7 5.7-.4 5.8-1.1 5.7-1.5 5.8-1 5.7-.1 5.8-.3 5.7-2 5.8-2.7 5.7-1.1 5.8-.2 5.7-1.5 5.8-.4 5.7-.2h5.8l5.7-.1 5.8-.1 5.7-1.4 5.8-.6 5.7-.4 5.8-.5 5.7-.1 5.8-.2 5.7-.1 5.8-.8 5.7-.7 5.8-.1 5.8-.3 5.7-.7 5.8-.4 5.7-.1 5.8-.3 5.7-.4 5.8-.9 5.7-.1 5.8-.4 5.7-.3 5.8-.3 5.7-.2 5.8-1.6 5.7-1.1 5.8-.3 5.7-.1 5.8-.3 5.7-.1 5.8-.6 5.7-1.1 5.8-.3h5.7l5.8-.5 5.7-.4 5.8-.9 5.7-1 5.8-1.3 5.7-.8 5.8-.1 5.7-.1 5.8-.2 5.7-.8 5.8-.2 5.8-.4 5.7-.3 5.8-1.4 5.7-.3 5.8-.6 5.7-2.1 5.8-.9 5.7-1.1h5.8l5.7-.7 5.8-.1 5.7-.4 5.8-1.1 5.7-5.4 5.8-.1 5.7-.3 5.8-.2 5.7-1.6 5.8-1.2 5.7-1 5.8-.2 5.7-.4 5.8-.5 5.7-.4 5.8-2 5.7-5.4 5.8-1.3 5.7-3.8 5.8-5.4 5.7-.1 5.8-16.5 5.7-1.9L615 25.3" fill="none" color="#000"/><text transform="translate(429.5 467.9)" stroke="none" fill="#000" font-family="Arial" font-size="12" text-anchor="end" color="#000"><tspan>score p10=1282</tspan></text><path stroke="#56B4E9" d="M437.8 464H480" fill="none" color="#000"/><g><text transform="translate(429.5 485.9)" stroke="none" fill="#000" font-family="Arial" font-size="12" text-anchor="end" color="#000"><tspan>score median=3500</tspan></text><path stroke="#E69F00" d="M437.8 482H480" fill="none" color="#000"/></g><g fill="none" color="#000" stroke="currentColor"><path stroke="#000" d="M45.6 18.1V392H615V18.1H45.6z"/></g></svg>

<?xml version="1.0" encoding="utf-8"  standalone="no"?>
<svg 
 width="640" height="500"
 viewBox="0 0 640 500"
 xmlns="http://www.w3.org/2000/svg"
 xmlns:xlink="http://www.w3.org/1999/xlink"
>

<title>Gnuplot</title>
<desc>Produced by GNUPLOT 5.4 patchlevel 0 </desc>

<g id="gnuplot_canvas">

<rect x="0" y="0" width="640" height="500" fill="#ffffff"/>
<defs>

	<circle id='gpDot' r='0.5' stroke-width='0.5' stroke='currentColor'/>
	<path id='gpPt0' stroke-width='0.222' stroke='currentColor' d='M-1,0 h2 M0,-1 v2'/>
	<path id='gpPt1' stroke-width='0.222' stroke='currentColor' d='M-1,-1 L1,1 M1,-1 L-1,1'/>
	<path id='gpPt2' stroke-width='0.222' stroke='currentColor' d='M-1,0 L1,0 M0,-1 L0,1 M-1,-1 L1,1 M-1,1 L1,-1'/>
	<rect id='gpPt3' stroke-width='0.222' stroke='currentColor' x='-1' y='-1' width='2' height='2'/>
	<rect id='gpPt4' stroke-width='0.222' stroke='currentColor' fill='currentColor' x='-1' y='-1' width='2' height='2'/>
	<circle id='gpPt5' stroke-width='0.222' stroke='currentColor' cx='0' cy='0' r='1'/>
	<use xlink:href='#gpPt5' id='gpPt6' fill='currentColor' stroke='none'/>
	<path id='gpPt7' stroke-width='0.222' stroke='currentColor' d='M0,-1.33 L-1.33,0.67 L1.33,0.67 z'/>
	<use xlink:href='#gpPt7' id='gpPt8' fill='currentColor' stroke='none'/>
	<use xlink:href='#gpPt7' id='gpPt9' stroke='currentColor' transform='rotate(180)'/>
	<use xlink:href='#gpPt9' id='gpPt10' fill='currentColor' stroke='none'/>
	<use xlink:href='#gpPt3' id='gpPt11' stroke='currentColor' transform='rotate(45)'/>
	<use xlink:href='#gpPt11' id='gpPt12' fill='currentColor' stroke='none'/>
	<path id='gpPt13' stroke-width='0.222' stroke='currentColor' d='M0,1.330 L1.265,0.411 L0.782,-1.067 L-0.782,-1.076 L-1.265,0.411 z'/>
	<use xlink:href='#gpPt13' id='gpPt14' fill='currentColor' stroke='none'/>
	<filter id='textbox' filterUnits='objectBoundingBox' x='0' y='0' height='1' width='1'>
	  <feFlood flood-color='#FFFFFF' flood-opacity='1' result='bgnd'/>
	  <feComposite in='SourceGraphic' in2='bgnd' operator='atop'/>
	</filter>
	<filter id='greybox' filterUnits='objectBoundingBox' x='0' y='0' height='1' width='1'>
	  <feFlood flood-color='lightgrey' flood-opacity='1' result='grey'/>
	  <feComposite in='SourceGraphic' in2='grey' operator='atop'/>
	</filter>
</defs>
<g fill="none" color="#FFFFFF" stroke="black" stroke-width="1.00" stroke-linecap="butt" stroke-linejoin="miter">
</g>
<g fill="none" color="black" stroke="currentColor" stroke-width="1.00" stroke-linecap="butt" stroke-linejoin="miter">
	<path stroke='black'  d='M45.6,359.1 L54.6,359.1 M615.0,359.1 L606.0,359.1  '/>	<g transform="translate(37.3,363.0)" stroke="none" fill="black" font-family="Arial" font-size="12.00"  text-anchor="end">
		<text><tspan font-family="Arial" > 38</tspan></text>
	</g>
</g>
<g fill="none" color="black" stroke="currentColor" stroke-width="1.00" stroke-linecap="butt" stroke-linejoin="miter">
	<path stroke='black'  d='M45.6,311.8 L54.6,311.8 M615.0,311.8 L606.0,311.8  '/>	<g transform="translate(37.3,315.7)" stroke="none" fill="black" font-family="Arial" font-size="12.00"  text-anchor="end">
		<text><tspan font-family="Arial" > 40</tspan></text>
	</g>
</g>
<g fill="none" color="black" stroke="currentColor" stroke-width="1.00" stroke-linecap="butt" stroke-linejoin="miter">
	<path stroke='black'  d='M45.6,264.4 L54.6,264.4 M615.0,264.4 L606.0,264.4  '/>	<g transform="translate(37.3,268.3)" stroke="none" fill="black" font-family="Arial" font-size="12.00"  text-anchor="end">
		<text><tspan font-family="Arial" > 42</tspan></text>
	</g>
</g>
<g fill="none" color="black" stroke="currentColor" stroke-width="1.00" stroke-linecap="butt" stroke-linejoin="miter">
	<path stroke='black'  d='M45.6,217.0 L54.6,217.0 M615.0,217.0 L606.0,217.0  '/>	<g transform="translate(37.3,220.9)" stroke="none" fill="black" font-family="Arial" font-size="12.00"  text-anchor="end">
		<text><tspan font-family="Arial" > 44</tspan></text>
	</g>
</g>
<g fill="none" color="black" stroke="currentColor" stroke-width="1.00" stroke-linecap="butt" stroke-linejoin="miter">
	<path stroke='black'  d='M45.6,169.7 L54.6,169.7 M615.0,169.7 L606.0,169.7  '/>	<g transform="translate(37.3,173.6)" stroke="none" fill="black" font-family="Arial" font-size="12.00"  text-anchor="end">
		<text><tspan font-family="Arial" > 46</tspan></text>
	</g>
</g>
<g fill="none" color="black" stroke="currentColor" stroke-width="1.00" stroke-linecap="butt" stroke-linejoin="miter">
	<path stroke='black'  d='M45.6,122.3 L54.6,122.3 M615.0,122.3 L606.0,122.3  '/>	<g transform="translate(37.3,126.2)" stroke="none" fill="black" font-family="Arial" font-size="12.00"  text-anchor="end">
		<text><tspan font-family="Arial" > 48</tspan></text>
	</g>
</g>
<g fill="none" color="black" stroke="currentColor" stroke-width="1.00" stroke-linecap="butt" stroke-linejoin="miter">
	<path stroke='black'  d='M45.6,74.9 L54.6,74.9 M615.0,74.9 L606.0,74.9  '/>	<g transform="translate(37.3,78.8)" stroke="none" fill="black" font-family="Arial" font-size="12.00"  text-anchor="end">
		<text><tspan font-family="Arial" > 50</tspan></text>
	</g>
</g>
<g fill="none" color="black" stroke="currentColor" stroke-width="1.00" stroke-linecap="butt" stroke-linejoin="miter">
	<path stroke='black'  d='M45.6,27.6 L54.6,27.6 M615.0,27.6 L606.0,27.6  '/>	<g transform="translate(37.3,31.5)" stroke="none" fill="black" font-family="Arial" font-size="12.00"  text-anchor="end">
		<text><tspan font-family="Arial" > 52</tspan></text>
	</g>
</g>
<g fill="none" color="black" stroke="currentColor" stroke-width="1.00" stroke-linecap="butt" stroke-linejoin="miter">
	<path stroke='black'  d='M45.6,392.0 L45.6,383.0 M45.6,18.1 L45.6,27.1  '/>	<g transform="translate(45.6,413.9)" stroke="none" fill="black" font-family="Arial" font-size="12.00"  text-anchor="middle">
		<text><tspan font-family="Arial" > 0</tspan></text>
	</g>
</g>
<g fill="none" color="black" stroke="currentColor" stroke-width="1.00" stroke-linecap="butt" stroke-linejoin="miter">
	<path stroke='black'  d='M103.1,392.0 L103.1,383.0 M103.1,18.1 L103.1,27.1  '/>	<g transform="translate(103.1,413.9)" stroke="none" fill="black" font-family="Arial" font-size="12.00"  text-anchor="middle">
		<text><tspan font-family="Arial" > 10</tspan></text>
	</g>
</g>
<g fill="none" color="black" stroke="currentColor" stroke-width="1.00" stroke-linecap="butt" stroke-linejoin="miter">
	<path stroke='black'  d='M160.6,392.0 L160.6,383.0 M160.6,18.1 L160.6,27.1  '/>	<g transform="translate(160.6,413.9)" stroke="none" fill="black" font-family="Arial" font-size="12.00"  text-anchor="middle">
		<text><tspan font-family="Arial" > 20</tspan></text>
	</g>
</g>
<g fill="none" color="black" stroke="currentColor" stroke-width="1.00" stroke-linecap="butt" stroke-linejoin="miter">
	<path stroke='black'  d='M218.1,392.0 L218.1,383.0 M218.1,18.1 L218.1,27.1  '/>	<g transform="translate(218.1,413.9)" stroke="none" fill="black" font-family="Arial" font-size="12.00"  text-anchor="middle">
		<text><tspan font-family="Arial" > 30</tspan></text>
	</g>
</g>
<g fill="none" color="black" stroke="currentColor" stroke-width="1.00" stroke-linecap="butt" stroke-linejoin="miter">
	<path stroke='black'  d='M275.7,392.0 L275.7,383.0 M275.7,18.1 L275.7,27.1  '/>	<g transform="translate(275.7,413.9)" stroke="none" fill="black" font-family="Arial" font-size="12.00"  text-anchor="middle">
		<text><tspan font-family="Arial" > 40</tspan></text>
	</g>
</g>
<g fill="none" color="black" stroke="currentColor" stroke-width="1.00" stroke-linecap="butt" stroke-linejoin="miter">
	<path stroke='black'  d='M333.2,392.0 L333.2,383.0 M333.2,18.1 L333.2,27.1  '/>	<g transform="translate(333.2,413.9)" stroke="none" fill="black" font-family="Arial" font-size="12.00"  text-anchor="middle">
		<text><tspan font-family="Arial" > 50</tspan></text>
	</g>
</g>
<g fill="none" color="black" stroke="currentColor" stroke-width="1.00" stroke-linecap="butt" stroke-linejoin="miter">
	<path stroke='black'  d='M390.7,392.0 L390.7,383.0 M390.7,18.1 L390.7,27.1  '/>	<g transform="translate(390.7,413.9)" stroke="none" fill="black" font-family="Arial" font-size="12.00"  text-anchor="middle">
		<text><tspan font-family="Arial" > 60</tspan></text>
	</g>
</g>
<g fill="none" color="black" stroke="currentColor" stroke-width="1.00" stroke-linecap="butt" stroke-linejoin="miter">
	<path stroke='black'  d='M448.2,392.0 L448.2,383.0 M448.2,18.1 L448.2,27.1  '/>	<g transform="translate(448.2,413.9)" stroke="none" fill="black" font-family="Arial" font-size="12.00"  text-anchor="middle">
		<text><tspan font-family="Arial" > 70</tspan></text>
	</g>
</g>
<g fill="none" color="black" stroke="currentColor" stroke-width="1.00" stroke-linecap="butt" stroke-linejoin="miter">
	<path stroke='black'  d='M505.7,392.0 L505.7,383.0 M505.7,18.1 L505.7,27.1  '/>	<g transform="translate(505.7,413.9)" stroke="none" fill="black" font-family="Arial" font-size="12.00"  text-anchor="middle">
		<text><tspan font-family="Arial" > 80</tspan></text>
	</g>
</g>
<g fill="none" color="black" stroke="currentColor" stroke-width="1.00" stroke-linecap="butt" stroke-linejoin="miter">
	<path stroke='black'  d='M563.2,392.0 L563.2,383.0 M563.2,18.1 L563.2,27.1  '/>	<g transform="translate(563.2,413.9)" stroke="none" fill="black" font-family="Arial" font-size="12.00"  text-anchor="middle">
		<text><tspan font-family="Arial" > 90</tspan></text>
	</g>
</g>
<g fill="none" color="black" stroke="currentColor" stroke-width="1.00" stroke-linecap="butt" stroke-linejoin="miter">
</g>
<g fill="none" color="black" stroke="currentColor" stroke-width="1.00" stroke-linecap="butt" stroke-linejoin="miter">
	<path stroke='black'  d='M45.6,18.1 L45.6,392.0 L615.0,392.0 L615.0,18.1 L45.6,18.1 Z  '/></g>
<g fill="none" color="black" stroke="currentColor" stroke-width="1.00" stroke-linecap="butt" stroke-linejoin="miter">
</g>
	<g id="gnuplot_plot_1" ><title>pages+cached+noexternal+nofonts</title>
<g fill="none" color="black" stroke="currentColor" stroke-width="1.00" stroke-linecap="butt" stroke-linejoin="miter">
	<g transform="translate(429.5,431.9)" stroke="none" fill="black" font-family="Arial" font-size="12.00"  text-anchor="end">
		<text><tspan font-family="Arial" >pages+cached+noexternal+nofonts</tspan></text>
	</g>
</g>
<g fill="none" color="black" stroke="currentColor" stroke-width="1.00" stroke-linecap="butt" stroke-linejoin="miter">
	<path stroke='rgb(148,   0, 211)'  d='M437.8,428.0 L480.0,428.0 M45.6,313.6 L51.4,263.5 L57.1,251.5 L62.9,246.6 L68.6,239.9 L74.4,233.6
		L80.1,232.1 L85.9,227.0 L91.6,224.9 L97.4,223.1 L103.1,222.6 L108.9,221.6 L114.6,219.8 L120.4,219.7
		L126.1,219.5 L131.9,219.1 L137.6,217.1 L143.4,216.9 L149.1,216.7 L154.9,216.2 L160.6,216.1 L166.4,214.6
		L172.1,212.0 L177.9,212.0 L183.6,211.9 L189.4,211.6 L195.1,210.1 L200.9,209.9 L206.6,209.7 L212.4,208.0
		L218.1,207.6 L223.9,207.1 L229.6,206.8 L235.4,206.5 L241.2,205.9 L246.9,205.3 L252.7,204.0 L258.4,204.0
		L264.2,203.4 L269.9,202.9 L275.7,202.8 L281.4,202.0 L287.2,201.4 L292.9,201.1 L298.7,200.4 L304.4,199.7
		L310.2,199.4 L315.9,199.0 L321.7,198.8 L327.4,197.0 L333.2,196.6 L338.9,194.4 L344.7,194.3 L350.4,193.0
		L356.2,192.5 L361.9,192.4 L367.7,190.0 L373.4,189.2 L379.2,189.1 L384.9,188.7 L390.7,187.6 L396.4,187.4
		L402.2,186.7 L407.9,186.2 L413.7,185.3 L419.4,184.2 L425.2,183.3 L431.0,183.2 L436.7,181.9 L442.5,180.9
		L448.2,180.2 L454.0,179.8 L459.7,179.1 L465.5,177.0 L471.2,175.9 L477.0,175.6 L482.7,174.5 L488.5,173.8
		L494.2,173.6 L500.0,172.4 L505.7,170.3 L511.5,169.4 L517.2,168.7 L523.0,167.9 L528.7,166.4 L534.5,164.0
		L540.2,164.0 L546.0,163.6 L551.7,163.5 L557.5,163.2 L563.2,162.8 L569.0,159.2 L574.7,157.1 L580.5,154.6
		L586.2,147.6 L592.0,146.6 L597.7,136.9 L603.5,132.6 L609.2,121.8 L615.0,86.1  '/></g>
	</g>
	<g id="gnuplot_plot_2" ><title>pages+cached+noexternal+nosvg</title>
<g fill="none" color="black" stroke="currentColor" stroke-width="1.00" stroke-linecap="butt" stroke-linejoin="miter">
	<g transform="translate(429.5,449.9)" stroke="none" fill="black" font-family="Arial" font-size="12.00"  text-anchor="end">
		<text><tspan font-family="Arial" >pages+cached+noexternal+nosvg</tspan></text>
	</g>
</g>
<g fill="none" color="black" stroke="currentColor" stroke-width="1.00" stroke-linecap="butt" stroke-linejoin="miter">
	<path stroke='rgb(  0, 158, 115)'  d='M437.8,446.0 L480.0,446.0 M45.6,384.8 L51.4,371.8 L57.1,368.9 L62.9,368.4 L68.6,367.8 L74.4,367.2
		L80.1,365.2 L85.9,364.5 L91.6,364.1 L97.4,363.0 L103.1,361.5 L108.9,360.5 L114.6,360.4 L120.4,360.1
		L126.1,358.1 L131.9,355.4 L137.6,354.3 L143.4,354.1 L149.1,352.6 L154.9,352.2 L160.6,352.0 L166.4,352.0
		L172.1,351.9 L177.9,351.8 L183.6,350.4 L189.4,349.8 L195.1,349.4 L200.9,348.9 L206.6,348.8 L212.4,348.6
		L218.1,348.5 L223.9,347.7 L229.6,347.0 L235.4,346.9 L241.2,346.6 L246.9,345.9 L252.7,345.5 L258.4,345.4
		L264.2,345.1 L269.9,344.7 L275.7,343.8 L281.4,343.7 L287.2,343.3 L292.9,343.0 L298.7,342.7 L304.4,342.5
		L310.2,340.9 L315.9,339.8 L321.7,339.5 L327.4,339.4 L333.2,339.1 L338.9,339.0 L344.7,338.4 L350.4,337.3
		L356.2,337.0 L361.9,337.0 L367.7,336.5 L373.4,336.1 L379.2,335.2 L384.9,334.2 L390.7,332.9 L396.4,332.1
		L402.2,332.0 L407.9,331.9 L413.7,331.7 L419.4,330.9 L425.2,330.7 L431.0,330.3 L436.7,330.0 L442.5,328.6
		L448.2,328.3 L454.0,327.7 L459.7,325.6 L465.5,324.7 L471.2,323.6 L477.0,323.6 L482.7,322.9 L488.5,322.8
		L494.2,322.4 L500.0,321.3 L505.7,315.9 L511.5,315.8 L517.2,315.5 L523.0,315.3 L528.7,313.7 L534.5,312.5
		L540.2,311.5 L546.0,311.3 L551.7,310.9 L557.5,310.4 L563.2,310.0 L569.0,308.0 L574.7,302.6 L580.5,301.3
		L586.2,297.5 L592.0,292.1 L597.7,292.0 L603.5,275.5 L609.2,273.6 L615.0,25.3  '/></g>
	</g>
	<g id="gnuplot_plot_3" ><title>score p10=1282</title>
<g fill="none" color="black" stroke="currentColor" stroke-width="1.00" stroke-linecap="butt" stroke-linejoin="miter">
	<g transform="translate(429.5,467.9)" stroke="none" fill="black" font-family="Arial" font-size="12.00"  text-anchor="end">
		<text><tspan font-family="Arial" >score p10=1282</tspan></text>
	</g>
</g>
<g fill="none" color="black" stroke="currentColor" stroke-width="1.00" stroke-linecap="butt" stroke-linejoin="miter">
	<path stroke='rgb( 86, 180, 233)'  d='M437.8,464.0 L480.0,464.0  '/></g>
	</g>
	<g id="gnuplot_plot_4" ><title>score median=3500</title>
<g fill="none" color="black" stroke="currentColor" stroke-width="1.00" stroke-linecap="butt" stroke-linejoin="miter">
	<g transform="translate(429.5,485.9)" stroke="none" fill="black" font-family="Arial" font-size="12.00"  text-anchor="end">
		<text><tspan font-family="Arial" >score median=3500</tspan></text>
	</g>
</g>
<g fill="none" color="black" stroke="currentColor" stroke-width="1.00" stroke-linecap="butt" stroke-linejoin="miter">
	<path stroke='rgb(230, 159,   0)'  d='M437.8,482.0 L480.0,482.0  '/></g>
	</g>
<g fill="none" color="#FFFFFF" stroke="rgb(230, 159,   0)" stroke-width="2.00" stroke-linecap="butt" stroke-linejoin="miter">
</g>
<g fill="none" color="black" stroke="currentColor" stroke-width="2.00" stroke-linecap="butt" stroke-linejoin="miter">
</g>
<g fill="none" color="black" stroke="black" stroke-width="1.00" stroke-linecap="butt" stroke-linejoin="miter">
</g>
<g fill="none" color="black" stroke="currentColor" stroke-width="1.00" stroke-linecap="butt" stroke-linejoin="miter">
	<path stroke='black'  d='M45.6,18.1 L45.6,392.0 L615.0,392.0 L615.0,18.1 L45.6,18.1 Z  '/></g>
<g fill="none" color="black" stroke="currentColor" stroke-width="1.00" stroke-linecap="butt" stroke-linejoin="miter">
</g>
</g>
</svg>
